icons/trophy-16.svg

<svg xmlns="http://www.w3.org/2000/svg" width="16" height="16" viewBox="0 0 16 16"><path fill-rule="evenodd" d="M3.217 6.962A3.75 3.75 0 010 3.25v-.5C0 1.784.784 1 1.75 1h1.356c.228-.585.796-1 1.462-1h6.864a1.57 1.57 0 011.462 1h1.356c.966 0 1.75.784 1.75 1.75v.5a3.75 3.75 0 01-3.217 3.712 5.014 5.014 0 01-2.771 3.117l.144 1.446c.005.05.03.12.114.204.086.087.217.17.373.227.283.103.618.274.89.568.285.31.467.723.467 1.226v.75h1.25a.75.75 0 110 1.5H2.75a.75.75 0 010-1.5H4v-.75c0-.503.182-.916.468-1.226.27-.294.606-.465.889-.568a1.03 1.03 0 00.373-.227c.084-.085.109-.153.114-.204l.144-1.446a5.014 5.014 0 01-2.77-3.117zM3 2.5H1.75a.25.25 0 00-.25.25v.5c0 .98.626 1.813 1.5 2.122V2.5zm4.457 7.97l-.12 1.204c-.093.925-.858 1.47-1.467 1.691a.764.764 0 00-.3.176c-.037.04-.07.093-.07.21v.75h5v-.75c0-.117-.033-.17-.07-.21a.763.763 0 00-.3-.176c-.609-.221-1.374-.766-1.466-1.69l-.12-1.204a5.052 5.052 0 01-1.087 0zM13 5.373V2.5h1.25a.25.25 0 01.25.25v.5A2.25 2.25 0 0113 5.372zM4.5 1.568c0-.037.03-.068.068-.068h6.864c.037 0 .068.03.068.068V5.5a3.5 3.5 0 11-7 0V1.568z"/></svg>

<svg xmlns="http://www.w3.org/2000/svg" width="16" height="16" viewBox="0 0 16 16">
  <defs/>
  <path d="M3.217,6.962 C1.371,6.697 0,5.115 0,3.25 L0,2.75 C0,1.784 0.784,1 1.75,1 L3.106,1 C3.334,0.415 3.902,0 4.568,0 L11.432,0 C12.079,0 12.659,0.397 12.894,1 L14.25,1 C15.216,1 16,1.784 16,2.75 L16,3.25 C16,5.115 14.629,6.697 12.783,6.962 C12.356,8.354 11.344,9.492 10.012,10.079 L10.156,11.525 C10.161,11.575 10.186,11.645 10.27,11.729 C10.356,11.816 10.487,11.899 10.643,11.956 C10.926,12.059 11.261,12.23 11.533,12.524 C11.818,12.834 12,13.247 12,13.75 L12,14.5 L13.25,14.5 C13.664,14.5 14,14.836 14,15.25 C14,15.664 13.664,16 13.25,16 L2.75,16 C2.336,16 2,15.664 2,15.25 C2,14.836 2.336,14.5 2.75,14.5 L4,14.5 L4,13.75 C4,13.247 4.182,12.834 4.468,12.524 C4.738,12.23 5.074,12.059 5.357,11.956 C5.496,11.908 5.623,11.83 5.73,11.729 C5.814,11.644 5.839,11.576 5.844,11.525 L5.988,10.079 C4.656,9.491 3.645,8.354 3.218,6.962 Z M4.5,1.568 L4.5,5.5 C4.5,7.433 6.067,9 8,9 C9.933,9 11.5,7.433 11.5,5.5 L11.5,1.568 C11.5,1.53 11.469,1.5 11.432,1.5 L4.568,1.5 C4.53,1.5 4.5,1.531 4.5,1.568 Z M7.457,10.47 L7.337,11.674 C7.244,12.599 6.479,13.144 5.87,13.365 C5.758,13.4 5.655,13.46 5.57,13.541 C5.533,13.581 5.5,13.634 5.5,13.751 L5.5,14.501 L10.5,14.501 L10.5,13.751 C10.5,13.634 10.467,13.581 10.43,13.541 C10.345,13.46 10.242,13.4 10.13,13.365 C9.521,13.144 8.756,12.599 8.664,11.675 L8.544,10.471 C8.183,10.51 7.818,10.51 7.457,10.471 Z M13,2.5 L13,5.372 C13.899,5.054 14.5,4.204 14.5,3.25 L14.5,2.75 C14.5,2.612 14.388,2.5 14.25,2.5 L13,2.5 Z M3,2.5 L1.75,2.5 C1.612,2.5 1.5,2.612 1.5,2.75 L1.5,3.25 C1.5,4.23 2.126,5.063 3,5.372 Z"/>
</svg>
